X:190
T:Jacky Stuarts reel
T:the Dead Cow
A:Wyresdale, Lancashire
B:E and J Winder, 1835-41
L:1/8
M:C|
N:Known in Scotland  Donegal as The Highlander Kissed his Granny (Mother), etc
O:England
Z:Richard Robinson 
%%TUNEURL: http://www.leeds.ac.uk/music/Info/RRTuneBk/gettune/000005cc.html
%%ID:000005cc
K:G
cg2e gcge | cg2e dBGB | \
cg2e gcge | afge dBGB ::
ceAe ceAe | ceAe (d/c/B/A/) GB | \
ceAe ceAe | afge dBGB :|
